X: 66
T: Successful Campaign
C: R-29
M: C|
Z: Transcribed to abc by Mary Lou Knack
R: reel
K: G
"G"G2GB "D"A2Ac| "G"BGBd     g4|    gfed "C"edcB| "Am"cBAG "D7"FAFD|
"G"G2GB "D"A2Ac| "G"BGBd "Em"g4| "A"gfed "A7"efga| f2e2 "D"d2z2:|
|:\
"D"d3f e2d2| c2B2 c2A2| "D7"c3e d2c2| "G"B2A2 B2G2|
"G"G2GB "D7"A2Ac| "G"BGBd g4| gfed "C"efga| "D"B2A2 "G"G4 :|
%%text 9/1/98
%%textfont       Times-Roman 13.0
%%text R-29, "Sweet Richard" - same as R-75
%%textfont       Times-Roman 9.0
%%newpage
% ---------- page 35 ----------
